X: 29
T:What Shall We Do With the Drunken Sailor
G:shanty
M:C|
L:1/4
Q:1/2=140
K:ADor
ee/e/ ee/e/|eAce |
dd/d/ dd/d/|dGBd |
ee/e/ ee/e/|efga |
ge    dB   |A2A2|]

but there are many Scottish examples:

